svgs/sharp-light/monument.svg

<svg xmlns="http://www.w3.org/2000/svg" viewBox="0 0 384 512"><!--! Font Awesome Pro 6.6.0 by @fontawesome - https://fontawesome.com License - https://fontawesome.com/license (Commercial License) Copyright 2024 Fonticons, Inc. --><path d="M86.3 384l39.8-272.9L192 45.3l65.9 65.9L297.7 384l32.3 0L288 96 214.6 22.6 192 0 169.4 22.6 96 96 54 384l32.3 0zM240 288l-96 0 0 32 96 0 0-32zM32 480l0-32 320 0 0 32L32 480zM0 416l0 32 0 32 0 32 32 0 320 0 32 0 0-32 0-32 0-32-32 0L32 416 0 416z"/></svg>

<svg xmlns="http://www.w3.org/2000/svg" viewBox="0 0 384 512"><!--! Font Awesome Pro 6.4.2 by @fontawesome - https://fontawesome.com License - https://fontawesome.com/license (Commercial License) Copyright 2023 Fonticons, Inc. --><path d="M86.3 384l39.8-272.9L192 45.3l65.9 65.9L297.7 384H330L288 96 214.6 22.6 192 0 169.4 22.6 96 96 54 384H86.3zM240 288H144v32h96V288zM32 480V448H352v32H32zM0 416v32 32 32H32 352h32V480 448 416H352 32 0z"/></svg>
